svg/email-neutral.svg

<?xml version="1.0" encoding="utf-8"?>
<!-- Generated by IcoMoon.io -->
<!DOCTYPE svg PUBLIC "-//W3C//DTD SVG 1.1//EN" "http://www.w3.org/Graphics/SVG/1.1/DTD/svg11.dtd">
<svg version="1.1" xmlns="http://www.w3.org/2000/svg" xmlns:xlink="http://www.w3.org/1999/xlink" width="32" height="32" viewBox="0 0 32 32">
<path d="M1.9 3.2h28.047c0.805 0.131 1.306 0.522 1.606 1.122l-13.953 13.678c-0.905 0.891-2.375 0.891-3.281 0l-13.973-13.7c0.297-0.578 0.792-0.956 1.555-1.1zM0.408 27.797c-0.239-0.425-0.408-0.919-0.408-1.475v-19.8l11.056 10.839-10.648 10.436zM20.944 17.361l11.056-10.839v19.8c0 0.556-0.169 1.050-0.408 1.475l-10.648-10.436zM1.997 28.8l10.362-10.161 1.959 1.923c0.906 0.887 2.377 0.887 3.281 0l1.963-1.923 10.359 10.161h-27.925z"></path>
</svg>

<svg xmlns="http://www.w3.org/2000/svg" width="32" height="32" viewBox="0 0 32 32"><path d="M1.9 3.2h28.047c.805.131 1.306.522 1.606 1.122L17.6 18a2.348 2.348 0 0 1-3.281 0L.346 4.3c.297-.578.792-.956 1.555-1.1zM.408 27.797A2.99 2.99 0 0 1 0 26.322v-19.8l11.056 10.839L.408 27.797zm20.536-10.436L32 6.522v19.8a2.99 2.99 0 0 1-.408 1.475L20.944 17.361zM1.997 28.8l10.362-10.161 1.959 1.923a2.355 2.355 0 0 0 3.281 0l1.963-1.923L29.921 28.8H1.996z"/></svg>
